X:1
T:THE CENTENARY MARCH
L:1/8
Q:1/4=120
M:4/4
K:E
 z2 |"D" z8"G" "A7"|"D" z4"G" "D"z2 .A.B |:"D" !slide!e2 e2 eBAG |
 !slide!b2 b>g"G" agfa |"D" e2 e>f ecBA |"G6"A2 A2"A" B2 .A.B |"D" e2 e2 eBAG |
 !slide!b2 b>g"G" agfe |"D" e2 a>b"G" c'ba"A7"f |"D" g2"G" a2"D" g2 eg ||
"D"!slide!b3 e EGBe |"A7/E" c2"D" B2"A/C#" B2"A6" c>d |"D" eBGE"D/F#" Be"G"dc |
"G6" A2 A2"A" B2 B>d |"D" eGBe gega | bedc"G" BAGF |
"D" Eede"A7" cAFA |1"D"G2"G" A2"D" g2 .A.B :|2"D" G2"G" A2"D" G2 z2 |
